X:1
L:1/8
M:4/4
K:D
 D2 D>E | FD FA | d2 d>c | dA FD | G2 B>G | FA FD | E2 A>B | AG FE | D2 D>E | FD FA | d2 d>c | 
 dA FD | G2 B>G | FA FD | E2 D>E | D4 | e2 e>d | ec A2 | d2 f>e | dA FA | d2 dd | c2 dc | Bd cB | 
 AG FE | D2 D>E | FD FA | d2 d>c | dA FD | G2 B>G | FA df | e2 AB/c/ | d4 |]
